;FLAVOR:UltiGCode
;TIME:17423
;MATERIAL:19030
;MATERIAL2:0
;NOZZLE_DIAMETER:0.4
;MINX:58.665
;MINY:87.21
;MINZ:0.27
;MAXX:163.24
;MAXY:135.79
;MAXZ:30.97
;TARGET_MACHINE.NAME:Ultimaker 2+
;Generated with Cura_SteamEngine 5.6.0
M82 ;absolute extrusion mode
G0 F3000 Y50 ;avoid prime blob
G92 E0
G92 E0
G10
;LAYER_COUNT:309
;LAYER:0
M107
G0 F7200 X63.318 Y88.887 Z0.27
;TYPE:SKIRT
G11
G1 F1800 X65.917 Y87.96 E0.29801
G1 X66.796 Y87.873 E0.39341
G1 X67.956 Y87.41 E0.5283
G1 X74.867 Y87.41 E1.27469
G1 X77.537 Y88.284 E1.5781
G1 X78.434 Y89.13 E1.71127
G1 X80.414 Y88.49 E1.936
G1 X85.308 Y88.491 E2.46455
G1 X86.884 Y89.027 E2.64434
G1 X88.382 Y87.832 E2.85129
G1 X90.978 Y87.21 E3.1396
G1 X115.08 Y87.21 E5.74261
G1 X115.86 Y87.41 E5.82958
G1 X129.306 Y87.41 E7.28174
G1 X131.976 Y88.284 E7.58516
G1 X132.872 Y89.129 E7.71817
G1 X134.851 Y88.49 E7.94277
G1 X139.79 Y88.49 E8.47618
G1 X141.559 Y89.092 E8.67799
G1 X142.887 Y88.032 E8.8615
G1 X145.49 Y87.41 E9.15054
G1 X156.81 Y87.41 E10.3731
G1 X159.428 Y88.3 E10.67174
G1 X159.744 Y88.5 E10.71213
G1 X162.237 Y91.067 E11.09859
G1 X163.24 Y94.139 E11.4476
G1 X163.24 Y128.769 E15.18764
G1 X162.82 Y130.697 E15.40075
G1 X161.71 Y132.517 E15.63098
G1 X159.564 Y134.599 E15.9539
G1 X156.507 Y135.59 E16.30097
G1 X145.043 Y135.59 E17.53908
G1 X142.359 Y134.72 E17.8438
G1 X141.464 Y133.871 E17.97703
G1 X139.488 Y134.51 E18.20132
G1 X134.94 Y134.51 E18.69251
G1 X133.138 Y134.118 E18.89167
G1 X132.757 Y133.924 E18.93785
G1 X131.444 Y134.969 E19.11908
G1 X128.837 Y135.59 E19.40852
G1 X115.962 Y135.59 E20.79902
G1 X115.155 Y135.79 E20.88881
G1 X90.755 Y135.79 E23.52401
G1 X88.202 Y135.138 E23.80858
G1 X86.799 Y133.929 E24.00861
G1 X85.005 Y134.51 E24.21226
G1 X80.501 Y134.51 E24.6987
G1 X78.688 Y134.115 E24.89909
G1 X78.314 Y133.925 E24.9444
G1 X77.01 Y134.966 E25.1246
G1 X74.415 Y135.588 E25.4128
G1 X68.311 Y135.585 E26.07203
G1 X66.978 Y135.134 E26.22402
G1 X65.312 Y134.928 E26.40531
G1 X62.749 Y133.742 E26.71032
G1 X60.524 Y131.019 E27.09009
G1 X59.776 Y128.215 E27.40351
G1 X59.72 Y124.564 E27.79787
G1 X59.512 Y124.105 E27.85229
G1 X58.86 Y122.235 E28.06618
G1 X58.863 Y117.866 E28.53803
G1 X59.587 Y115.969 E28.75732
G1 X59.473 Y114.947 E28.86838
G1 X59.521 Y107.358 E29.68801
G1 X59.158 Y106.585 E29.78024
G1 X58.665 Y104.537 E30.00774
G1 X58.667 Y101.162 E30.37224
G1 X59.305 Y98.598 E30.6576
G1 X59.718 Y97.881 E30.74696
G1 X59.751 Y96.943 E30.84833
G1 X59.764 Y94.225 E31.14187
G1 X60.729 Y91.437 E31.46051
G1 X63.318 Y88.887 E31.85297
G0 F7200 X63.536 Y89.234
G1 F1800 X66.006 Y88.353 E32.13619
G1 X66.893 Y88.265 E32.23246
G1 X68.034 Y87.81 E32.36512
G1 X74.803 Y87.81 E33.09617
G1 X77.328 Y88.637 E33.38313
G1 X78.333 Y89.584 E33.53226
G1 X80.478 Y88.89 E33.77575
G1 X85.241 Y88.891 E34.29015
G1 X86.963 Y89.477 E34.4866
G1 X88.563 Y88.2 E34.70769
G1 X91.025 Y87.61 E34.98111
G1 X115.032 Y87.61 E37.57387
G1 X115.812 Y87.81 E37.66083
G1 X129.242 Y87.81 E39.11127
G1 X131.767 Y88.637 E39.39823
G1 X132.771 Y89.583 E39.54721
G1 X134.915 Y88.89 E39.79056
G1 X139.723 Y88.89 E40.30982
G1 X141.637 Y89.541 E40.52816
G1 X143.067 Y88.4 E40.72574
G1 X145.537 Y87.81 E41.00001
G1 X156.743 Y87.81 E42.21025
G1 X159.299 Y88.679 E42.50182
G1 X159.457 Y88.779 E42.52201
G1 X161.886 Y91.28 E42.89855
G1 X162.84 Y94.202 E43.23052
G1 X162.84 Y128.725 E46.959
G1 X162.443 Y130.548 E47.1605
G1 X161.397 Y132.263 E47.37745
G1 X159.352 Y134.247 E47.68517
G1 X156.443 Y135.19 E48.01544
G1 X145.104 Y135.19 E49.24005
G1 X142.569 Y134.368 E49.52786
G1 X141.566 Y133.417 E49.67714
G1 X139.424 Y134.11 E49.92028
G1 X134.984 Y134.11 E50.3998
G1 X133.223 Y133.727 E50.59443
G1 X132.718 Y133.444 E50.65695
G1 X131.265 Y134.601 E50.85755
G1 X128.79 Y135.19 E51.13232
G1 X115.914 Y135.19 E52.52292
G1 X115.107 Y135.39 E52.61272
G1 X90.807 Y135.39 E55.23712
G1 X88.391 Y134.773 E55.50642
G1 X86.889 Y133.479 E55.72053
G1 X84.941 Y134.11 E55.94168
G1 X80.545 Y134.11 E56.41645
G1 X78.773 Y133.724 E56.61231
G1 X78.275 Y133.444 E56.67401
G1 X76.829 Y134.598 E56.87382
G1 X74.368 Y135.188 E57.14714
G1 X68.377 Y135.185 E57.79417
G1 X67.068 Y134.742 E57.94341
G1 X65.423 Y134.539 E58.12242
G1 X63.001 Y133.418 E58.41066
G1 X60.887 Y130.831 E58.77147
G1 X60.175 Y128.162 E59.06981
G1 X60.119 Y124.473 E59.46826
G1 X59.89 Y123.973 E59.52766
G1 X59.26 Y122.166 E59.73433
G1 X59.263 Y117.941 E60.19063
G1 X59.996 Y116.021 E60.41259
G1 X59.871 Y114.903 E60.53409
G1 X59.922 Y107.27 E61.35847
G1 X59.538 Y106.453 E61.45597
G1 X59.065 Y104.489 E61.67414
G1 X59.067 Y101.211 E62.02817
G1 X59.679 Y98.751 E62.30195
G1 X60.115 Y97.995 E62.3962
G1 X60.151 Y96.957 E62.50837
G1 X60.164 Y94.293 E62.79609
G1 X61.076 Y91.657 E63.09733
G1 X63.536 Y89.234 E63.47024
G0 F7200 X63.754 Y89.581
G1 F1800 X66.095 Y88.746 E63.73867
G1 X66.987 Y88.658 E63.83548
G1 X68.109 Y88.21 E63.96596
G1 X74.74 Y88.21 E64.6821
G1 X77.119 Y88.989 E64.95246
G1 X78.232 Y90.038 E65.11764
G1 X80.542 Y89.29 E65.37987
G1 X85.174 Y89.291 E65.88013
G1 X87.041 Y89.926 E66.09311
G1 X88.743 Y88.568 E66.32826
G1 X91.072 Y88.01 E66.58691
G1 X114.984 Y88.01 E69.16941
G1 X115.764 Y88.21 E69.25638
G1 X129.179 Y88.21 E70.7052
G1 X131.558 Y88.989 E70.97555
G1 X132.67 Y90.037 E71.14058
G1 X134.979 Y89.29 E71.40268
G1 X139.656 Y89.29 E71.90779
G1 X141.715 Y89.99 E72.14266
G1 X143.247 Y88.768 E72.35431
G1 X145.584 Y88.21 E72.6138
G1 X156.676 Y88.21 E73.81173
G1 X159.17 Y89.058 E74.09623
G1 X161.535 Y91.493 E74.46283
G1 X162.44 Y94.265 E74.77776
G1 X162.44 Y128.681 E78.49469
G1 X162.066 Y130.399 E78.68458
G1 X161.084 Y132.009 E78.88825
G1 X159.14 Y133.895 E79.18077
G1 X156.379 Y134.79 E79.49423
G1 X145.168 Y134.79 E80.70502
G1 X142.777 Y134.015 E80.97648
G1 X141.668 Y132.963 E81.14156
G1 X139.36 Y133.71 E81.40356
G1 X135.028 Y133.71 E81.87141
G1 X133.308 Y133.336 E82.06152
G1 X132.687 Y132.957 E82.14009
G1 X131.086 Y134.233 E82.36119
G1 X128.743 Y134.79 E82.62129
G1 X115.866 Y134.79 E84.01201
G1 X115.059 Y134.99 E84.1018
G1 X90.859 Y134.99 E86.7154
G1 X88.58 Y134.408 E86.96943
G1 X86.979 Y133.029 E87.19764
G1 X84.877 Y133.71 E87.43627
G1 X80.589 Y133.71 E87.89937
G1 X78.858 Y133.333 E88.0907
G1 X78.246 Y132.956 E88.16833
G1 X76.649 Y134.23 E88.38897
G1 X74.321 Y134.788 E88.64751
G1 X68.443 Y134.785 E89.28234
G1 X67.158 Y134.35 E89.42885
G1 X65.534 Y134.15 E89.60557
G1 X63.253 Y133.094 E89.87704
G1 X61.25 Y130.643 E90.2189
G1 X60.574 Y128.109 E90.50214
G1 X60.518 Y124.382 E90.9047
G1 X60.268 Y123.841 E90.96906
G1 X59.66 Y122.097 E91.16853
G1 X59.663 Y118.016 E91.60928
G1 X60.404 Y116.074 E91.83377
G1 X60.271 Y114.906 E91.96073
G1 X60.323 Y107.182 E92.79494
G1 X59.918 Y106.321 E92.8977
G1 X59.465 Y104.441 E93.10655
G1 X59.467 Y101.26 E93.4501
G1 X60.053 Y98.904 E93.7123
G1 X60.511 Y98.109 E93.81139
G1 X60.551 Y96.971 E93.93437
G1 X60.564 Y94.361 E94.21625
G1 X61.423 Y91.877 E94.50011
G1 X63.754 Y89.581 E94.85347
G0 F7200 X63.972 Y89.928
G1 F1800 X66.184 Y89.139 E95.10711
G1 X67.084 Y89.05 E95.20479
G1 X68.187 Y88.61 E95.33304
G1 X74.677 Y88.61 E96.03396
G1 X76.91 Y89.341 E96.28772
G1 X78.131 Y90.492 E96.46894
G1 X80.606 Y89.69 E96.74992
G1 X85.107 Y89.691 E97.23603
G1 X87.12 Y90.376 E97.46568
G1 X88.924 Y88.936 E97.71497
G1 X91.119 Y88.41 E97.95874
G1 X114.936 Y88.41 E100.53098
G1 X115.716 Y88.61 E100.61794
G1 X129.116 Y88.61 E102.06514
G1 X131.349 Y89.341 E102.3189
G1 X132.569 Y90.491 E102.49997
G1 X135.043 Y89.69 E102.78082
G1 X139.589 Y89.69 E103.27178
G1 X141.794 Y90.44 E103.52332
G1 X143.428 Y89.136 E103.7491
G1 X145.631 Y88.61 E103.99371
G1 X156.609 Y88.61 E105.17934
G1 X158.95 Y89.406 E105.44638
G1 X161.184 Y91.706 E105.79267
G1 X162.04 Y94.328 E106.09055
G1 X162.04 Y128.637 E109.79592
G1 X161.689 Y130.25 E109.97421
G1 X160.771 Y131.755 E110.1646
G1 X158.928 Y133.543 E110.44192
G1 X156.315 Y134.39 E110.73858
G1 X145.229 Y134.39 E111.93587
G1 X142.987 Y133.663 E112.19041
G1 X141.77 Y132.509 E112.37155
G1 X139.296 Y133.31 E112.65239
G1 X135.072 Y133.31 E113.10859
G1 X133.459 Y132.959 E113.28687
G1 X132.657 Y132.47 E113.38831
G1 X130.906 Y133.865 E113.6301
G1 X128.697 Y134.39 E113.87532
G1 X115.818 Y134.39 E115.26625
G1 X115.011 Y134.59 E115.35604
G1 X90.911 Y134.59 E117.95884
G1 X88.769 Y134.043 E118.1976
G1 X87.069 Y132.579 E118.4399
G1 X84.813 Y133.31 E118.69602
G1 X80.633 Y133.31 E119.14746
G1 X79.011 Y132.957 E119.32673
G1 X78.217 Y132.468 E119.42744
G1 X76.469 Y133.862 E119.66891
G1 X74.274 Y134.388 E119.91268
G1 X68.509 Y134.385 E120.5353
G1 X67.248 Y133.958 E120.67908
G1 X65.645 Y133.761 E120.85351
G1 X63.505 Y132.77 E121.10821
G1 X61.613 Y130.455 E121.43111
G1 X60.973 Y128.056 E121.69926
G1 X60.917 Y124.29 E122.10603
G1 X60.646 Y123.709 E122.17527
G1 X60.06 Y122.028 E122.36754
G1 X60.063 Y118.091 E122.79273
G1 X60.812 Y116.127 E123.01974
G1 X60.671 Y114.909 E123.15217
G1 X60.724 Y107.094 E123.99621
G1 X60.298 Y106.189 E124.10423
G1 X59.865 Y104.393 E124.30376
G1 X59.867 Y101.309 E124.63683
G1 X60.427 Y99.057 E124.88745
G1 X60.908 Y98.223 E124.99143
G1 X60.951 Y96.985 E125.12522
G1 X60.964 Y94.429 E125.40127
G1 X61.77 Y92.097 E125.66774
G1 X63.972 Y89.928 E126.00156
G0 F7200 X64.19 Y90.275
G1 F1800 X66.273 Y89.532 E126.2404
G1 X67.178 Y89.443 E126.33861
G1 X68.262 Y89.01 E126.46468
G1 X74.613 Y89.01 E127.15059
G1 X76.701 Y89.694 E127.38788
G1 X78.109 Y91.021 E127.59684
G1 X78.38 Y90.832 E127.63252
G1 X80.67 Y90.09 E127.8925
G1 X85.04 Y90.091 E128.36446
G1 X87.198 Y90.825 E128.61064
G1 X89.104 Y89.304 E128.874
G1 X91.166 Y88.81 E129.10299
G1 X114.888 Y88.81 E131.66497
G1 X115.668 Y89.01 E131.75194
G1 X129.052 Y89.01 E133.19741
G1 X131.14 Y89.694 E133.4347
G1 X132.548 Y91.02 E133.64359
G1 X132.82 Y90.831 E133.67936
G1 X135.107 Y90.09 E133.93899
G1 X139.522 Y90.09 E134.41581
G1 X141.528 Y90.772 E134.64464
G1 X141.786 Y90.959 E134.67905
G1 X143.609 Y89.504 E134.93096
G1 X145.678 Y89.01 E135.16069
G1 X156.542 Y89.01 E136.33401
G1 X158.73 Y89.754 E136.5836
G1 X160.833 Y91.919 E136.90957
G1 X161.64 Y94.391 E137.19041
G1 X161.64 Y128.593 E140.88423
G1 X161.312 Y130.101 E141.0509
G1 X160.458 Y131.501 E141.22801
G1 X158.716 Y133.191 E141.49013
G1 X156.251 Y133.99 E141.76999
G1 X145.293 Y133.99 E142.95345
G1 X143.195 Y133.31 E143.19164
G1 X141.792 Y131.979 E143.4005
G1 X141.519 Y132.169 E143.43642
G1 X139.232 Y132.91 E143.69606
G1 X135.116 Y132.91 E144.14059
G1 X133.608 Y132.582 E144.30726
G1 X132.626 Y131.983 E144.43149
G1 X130.726 Y133.497 E144.69387
G1 X128.651 Y133.99 E144.92421
G1 X115.77 Y133.99 E146.31536
G1 X114.963 Y134.19 E146.40515
G1 X90.963 Y134.19 E148.99715
G1 X88.958 Y133.678 E149.22064
G1 X87.159 Y132.129 E149.47703
G1 X84.749 Y132.91 E149.75063
G1 X80.677 Y132.91 E150.19041
G1 X79.164 Y132.581 E150.35763
G1 X78.188 Y131.98 E150.48142
G1 X76.289 Y133.494 E150.74372
G1 X74.227 Y133.988 E150.97272
G1 X68.575 Y133.985 E151.58313
G1 X67.338 Y133.566 E151.72418
G1 X65.756 Y133.372 E151.89632
G1 X63.757 Y132.446 E152.13425
G1 X61.976 Y130.267 E152.43819
G1 X61.372 Y128.003 E152.69125
G1 X61.316 Y124.198 E153.10224
G1 X61.024 Y123.577 E153.17635
G1 X60.46 Y121.959 E153.36141
G1 X60.463 Y118.166 E153.77105
G1 X61.221 Y116.179 E154.00073
G1 X61.071 Y114.912 E154.13852
G1 X61.12 Y107.306 E154.95999
G1 X61.151 Y107.061 E154.98666
G1 X60.678 Y106.057 E155.10652
G1 X60.265 Y104.345 E155.29672
G1 X60.267 Y101.358 E155.61932
G1 X60.801 Y99.21 E155.85836
G1 X61.304 Y98.337 E155.96718
G1 X61.351 Y96.999 E156.11177
G1 X61.364 Y94.497 E156.38199
G1 X62.117 Y92.317 E156.63108
G1 X64.19 Y90.275 E156.94534
G0 F7200 X64.408 Y90.622
G1 F1800 X62.464 Y92.537 E157.24005
G1 X61.764 Y94.565 E157.47176
G1 X61.751 Y97.013 E157.73614
G1 X61.701 Y98.449 E157.89132
G1 X61.175 Y99.361 E158.00503
G1 X60.667 Y101.406 E158.2326
G1 X60.665 Y104.297 E158.54483
G1 X61.057 Y105.923 E158.72547
G1 X61.564 Y106.998 E158.85383
G1 X61.52 Y107.309 E158.88776
G1 X61.471 Y114.915 E159.70922
G1 X61.63 Y116.23 E159.85227
G1 X60.863 Y118.241 E160.08472
G1 X60.86 Y121.89 E160.47882
G1 X61.402 Y123.445 E160.65666
G1 X61.7 Y124.074 E160.73184
G1 X61.722 Y124.579 E160.78643
G1 X61.771 Y127.95 E161.15053
G1 X62.339 Y130.079 E161.38851
G1 X64.009 Y132.122 E161.67349
G1 X65.867 Y132.983 E161.89465
G1 X67.427 Y133.174 E162.06439
G1 X68.641 Y133.585 E162.20281
G1 X74.18 Y133.588 E162.80102
G1 X76.109 Y133.126 E163.01525
G1 X77.864 Y131.726 E163.25771
G1 X78.077 Y131.441 E163.29613
G1 X79.317 Y132.205 E163.45343
G1 X80.721 Y132.51 E163.6086
G1 X84.685 Y132.51 E164.03671
G1 X86.913 Y131.788 E164.28965
G1 X87.233 Y131.534 E164.33378
G1 X87.447 Y131.849 E164.37491
G1 X89.147 Y133.313 E164.6172
G1 X91.015 Y133.79 E164.82542
G1 X114.915 Y133.79 E167.40662
G1 X115.722 Y133.59 E167.49641
G1 X128.605 Y133.59 E168.88778
G1 X130.546 Y133.129 E169.10324
G1 X132.292 Y131.738 E169.34433
G1 X132.511 Y131.445 E169.38384
G1 X133.757 Y132.205 E169.54146
G1 X135.16 Y132.51 E169.69653
G1 X139.168 Y132.51 E170.12939
G1 X141.396 Y131.788 E170.38233
G1 X141.809 Y131.444 E170.44038
G1 X143.405 Y132.958 E170.67797
G1 X145.354 Y133.59 E170.89925
G1 X156.187 Y133.59 E172.06922
G1 X158.504 Y132.839 E172.33227
G1 X160.145 Y131.247 E172.57919
G1 X160.935 Y129.952 E172.74302
G1 X161.24 Y128.549 E172.89809
G1 X161.24 Y94.454 E176.58035
G1 X160.482 Y92.132 E176.84415
G1 X158.51 Y90.102 E177.1498
G1 X156.475 Y89.41 E177.38194
G1 X145.725 Y89.41 E178.54294
G1 X143.789 Y89.872 E178.7579
G1 X142.039 Y91.268 E178.99967
G1 X141.836 Y91.539 E179.03624
G1 X141.399 Y91.151 E179.09935
G1 X139.455 Y90.49 E179.32111
G1 X135.171 Y90.49 E179.78378
G1 X132.943 Y91.212 E180.03672
G1 X132.532 Y91.554 E180.09447
G1 X130.931 Y90.046 E180.332
G1 X128.989 Y89.41 E180.5527
G1 X115.62 Y89.41 E181.99655
G1 X114.84 Y89.21 E182.08351
G1 X91.213 Y89.21 E184.63523
G1 X89.284 Y89.672 E184.84945
G1 X87.529 Y91.072 E185.09191
G1 X87.26 Y91.443 E185.14141
G1 X86.917 Y91.152 E185.18999
G1 X84.973 Y90.491 E185.41174
G1 X80.734 Y90.49 E185.86956
G1 X78.503 Y91.213 E186.12284
G1 X78.092 Y91.554 E186.18052
G1 X76.492 Y90.046 E186.41797
G1 X74.55 Y89.41 E186.63867
G1 X68.34 Y89.41 E187.30935
G1 X67.275 Y89.835 E187.43319
G1 X66.362 Y89.925 E187.53227
G1 X64.408 Y90.622 E187.75633
G0 F7200 X64.626 Y90.969
G1 F1800 X62.811 Y92.757 E188.03149
G1 X62.164 Y94.632 E188.2457
G1 X62.151 Y97.027 E188.50437
G1 X62.097 Y98.563 E188.67036
G1 X61.549 Y99.515 E188.78899
G1 X61.067 Y101.454 E189.00478
G1 X61.065 Y104.249 E189.30664
G1 X61.436 Y105.789 E189.47771
G1 X61.977 Y106.936 E189.61468
G1 X61.92 Y107.312 E189.65575
G1 X61.871 Y114.918 E190.47721
G1 X62.039 Y116.281 E190.62553
G1 X61.263 Y118.316 E190.86075
G1 X61.26 Y121.822 E191.2394
G1 X61.764 Y123.274 E191.40539
G1 X62.096 Y123.976 E191.48926
G1 X62.122 Y124.573 E191.5538
G1 X62.17 Y127.897 E191.91283
G1 X62.702 Y129.891 E192.13571
G1 X64.261 Y131.798 E192.40173
G1 X65.978 Y132.594 E192.60613
G1 X67.516 Y132.782 E192.77347
G1 X68.707 Y133.185 E192.90926
G1 X74.133 Y133.188 E193.49527
G1 X75.929 Y132.758 E193.69472
G1 X77.615 Y131.413 E193.92765
G1 X78.007 Y130.821 E194.00433
G1 X78.325 Y131.131 E194.05229
G1 X79.467 Y131.828 E194.19678
G1 X80.765 Y132.11 E194.34024
G1 X84.621 Y132.11 E194.75669
G1 X86.79 Y131.407 E195.00294
G1 X87.315 Y130.898 E195.08191
G1 X87.708 Y131.546 E195.16376
G1 X89.336 Y132.948 E195.39579
G1 X91.067 Y133.39 E195.58874
G1 X114.867 Y133.39 E198.15914
G1 X115.674 Y133.19 E198.24893
G1 X128.559 Y133.19 E199.64051
G1 X130.366 Y132.761 E199.84109
G1 X132.043 Y131.425 E200.07266
G1 X132.446 Y130.823 E200.1509
G1 X132.718 Y131.103 E200.19306
G1 X133.906 Y131.828 E200.34337
G1 X135.204 Y132.11 E200.48682
G1 X139.104 Y132.11 E200.90802
G1 X141.273 Y131.407 E201.15427
G1 X141.859 Y130.838 E201.24248
G1 X142.092 Y131.163 E201.28567
G1 X143.613 Y132.605 E201.51203
G1 X145.418 Y133.19 E201.71695
G1 X156.123 Y133.19 E202.87309
G1 X158.292 Y132.487 E203.11934
G1 X159.832 Y130.993 E203.35107
G1 X160.558 Y129.803 E203.50162
G1 X160.84 Y128.505 E203.64507
G1 X160.84 Y94.517 E207.31577
G1 X160.131 Y92.345 E207.56253
G1 X158.29 Y90.45 E207.84787
G1 X156.408 Y89.81 E208.06256
G1 X145.772 Y89.81 E209.21125
G1 X143.969 Y90.24 E209.41143
G1 X142.288 Y91.581 E209.64367
