;FLAVOR:UltiGCode
;TIME:17516
;MATERIAL:18896
;MATERIAL2:0
;NOZZLE_DIAMETER:0.4
;MINX:57.974
;MINY:86.873
;MINZ:0.27
;MAXX:163.24
;MAXY:136.834
;MAXZ:30.97
;TARGET_MACHINE.NAME:Ultimaker 2+
;Generated with Cura_SteamEngine 5.6.0
M82 ;absolute extrusion mode
G0 F3000 Y50 ;avoid prime blob
G92 E0
G92 E0
G10
;LAYER_COUNT:309
;LAYER:0
M107
G0 F7200 X62.03 Y89.98 Z0.27
;TYPE:SKIRT
G11
G1 F1800 X65.085 Y87.989 E0.39382
G1 X68.866 Y87.455 E0.80622
G1 X74.846 Y87.396 E1.4521
G1 X77.533 Y88.263 E1.75702
G1 X78.441 Y89.129 E1.89254
G1 X80.414 Y88.49 E2.11652
G1 X85.307 Y88.491 E2.64496
G1 X86.583 Y88.924 E2.79049
G1 X87.035 Y88.423 E2.86336
G1 X88.893 Y87.252 E3.10056
G1 X92.279 Y86.873 E3.46853
G1 X93.712 Y87.166 E3.62649
G1 X94.705 Y87.205 E3.73382
G1 X115.029 Y87.211 E5.92881
G1 X115.863 Y87.407 E6.02134
G1 X127.377 Y87.373 E7.26486
G1 X128.772 Y87.297 E7.41574
G1 X131.276 Y87.846 E7.6926
G1 X132.927 Y89.112 E7.91729
G1 X134.851 Y88.49 E8.13567
G1 X139.79 Y88.49 E8.66908
G1 X141.559 Y89.092 E8.8709
G1 X142.887 Y88.032 E9.05441
G1 X145.49 Y87.41 E9.34344
G1 X156.81 Y87.41 E10.566
G1 X159.428 Y88.3 E10.86464
G1 X159.744 Y88.5 E10.90503
G1 X162.237 Y91.067 E11.29149
G1 X163.24 Y94.139 E11.6405
G1 X163.24 Y128.769 E15.38054
G1 X162.82 Y130.697 E15.59365
G1 X161.71 Y132.517 E15.82388
G1 X159.564 Y134.599 E16.1468
G1 X156.507 Y135.59 E16.49387
G1 X145.043 Y135.59 E17.73198
G1 X142.359 Y134.72 E18.0367
G1 X141.464 Y133.871 E18.16994
G1 X139.488 Y134.51 E18.39422
G1 X134.94 Y134.51 E18.88541
G1 X133.134 Y134.118 E19.085
G1 X132.804 Y133.953 E19.12484
G1 X131.42 Y135.058 E19.31611
G1 X128.646 Y135.68 E19.62315
G1 X126.393 Y135.601 E19.86662
G1 X115.959 Y135.59 E20.99349
G1 X115.155 Y135.79 E21.08297
G1 X93.726 Y135.815 E23.3973
G1 X92.062 Y136.22 E23.58226
G1 X90.071 Y136.15 E23.79742
G1 X87.12 Y134.628 E24.15602
G1 X86.526 Y134.013 E24.24836
G1 X85.002 Y134.51 E24.42149
G1 X80.501 Y134.51 E24.9076
G1 X78.697 Y134.118 E25.10697
G1 X78.318 Y133.926 E25.15286
G1 X76.991 Y134.974 E25.33548
G1 X74.441 Y135.594 E25.6189
G1 X72.827 Y135.599 E25.79322
G1 X71.801 Y136.149 E25.91894
G1 X68.76 Y136.834 E26.2556
G1 X65.474 Y136.534 E26.61196
G1 X63.483 Y135.773 E26.84216
G1 X61.239 Y134.329 E27.13036
G1 X59.456 Y132.004 E27.44679
G1 X58.269 Y129.103 E27.78531
G1 X57.974 Y125.974 E28.12474
G1 X58.636 Y123.498 E28.40154
G1 X59.191 Y122.353 E28.53896
G1 X59.091 Y121.602 E28.62079
G1 X59.044 Y117.816 E29.02971
G1 X59.709 Y116.299 E29.20859
G1 X59.46 Y115.597 E29.28904
G1 X59.466 Y107.843 E30.12647
G1 X59.557 Y107.402 E30.1751
G1 X59.074 Y106.308 E30.30426
G1 X58.664 Y104.338 E30.52158
G1 X58.668 Y100.724 E30.91189
G1 X59.525 Y98.132 E31.20673
G1 X59.589 Y97.996 E31.22296
G1 X59.362 Y94.902 E31.55801
G1 X60.59 Y91.984 E31.89993
G1 X62.03 Y89.98 E32.16644
G0 F7200 X62.311 Y90.274
G1 F1800 X65.228 Y88.373 E32.54247
G1 X68.87 Y87.855 E32.93976
G1 X74.784 Y87.797 E33.57851
G1 X77.323 Y88.616 E33.86663
G1 X78.338 Y89.583 E34.01804
G1 X80.478 Y88.89 E34.26097
G1 X85.241 Y88.891 E34.77538
G1 X86.704 Y89.387 E34.94221
G1 X87.296 Y88.731 E35.03765
G1 X89.027 Y87.64 E35.25863
G1 X92.262 Y87.278 E35.61019
G1 X93.665 Y87.565 E35.76485
G1 X94.689 Y87.605 E35.87553
G1 X114.984 Y87.611 E38.06739
G1 X115.818 Y87.807 E38.15991
G1 X127.381 Y87.773 E39.40872
G1 X128.737 Y87.699 E39.55539
G1 X131.104 Y88.218 E39.8171
G1 X132.85 Y89.558 E40.0548
G1 X134.915 Y88.89 E40.2892
G1 X139.723 Y88.89 E40.80846
G1 X141.637 Y89.541 E41.0268
G1 X143.067 Y88.4 E41.22438
G1 X145.537 Y87.81 E41.49864
G1 X156.743 Y87.81 E42.70889
G1 X159.299 Y88.679 E43.00046
G1 X159.457 Y88.779 E43.02065
G1 X161.886 Y91.28 E43.39719
G1 X162.84 Y94.202 E43.72915
G1 X162.84 Y128.725 E47.45764
G1 X162.443 Y130.548 E47.65914
G1 X161.397 Y132.263 E47.87609
G1 X159.352 Y134.247 E48.18381
G1 X156.443 Y135.19 E48.51408
G1 X145.104 Y135.19 E49.73869
G1 X142.569 Y134.368 E50.0265
G1 X141.566 Y133.417 E50.17578
G1 X139.424 Y134.11 E50.41892
G1 X134.984 Y134.11 E50.89844
G1 X133.219 Y133.727 E51.0935
G1 X132.763 Y133.473 E51.14987
G1 X131.241 Y134.688 E51.3602
G1 X128.61 Y135.278 E51.6514
G1 X126.407 Y135.201 E51.88947
G1 X115.912 Y135.19 E53.02293
G1 X115.107 Y135.39 E53.11251
G1 X93.676 Y135.415 E55.42706
G1 X92.02 Y135.818 E55.61113
G1 X90.175 Y135.753 E55.81052
G1 X87.362 Y134.303 E56.15231
G1 X86.64 Y133.555 E56.26458
G1 X84.939 Y134.11 E56.45782
G1 X80.545 Y134.11 E56.93237
G1 X78.782 Y133.727 E57.12722
G1 X78.279 Y133.447 E57.18939
G1 X76.812 Y134.605 E57.39124
G1 X74.391 Y135.194 E57.66034
G1 X72.725 Y135.199 E57.84027
G1 X71.658 Y135.771 E57.97102
G1 X68.733 Y136.43 E58.29483
G1 X65.568 Y136.141 E58.63808
G1 X63.66 Y135.412 E58.85867
G1 X61.514 Y134.031 E59.13428
G1 X59.806 Y131.804 E59.43739
G1 X58.662 Y129.007 E59.76376
G1 X58.379 Y126.007 E60.08919
G1 X59.011 Y123.642 E60.35358
G1 X59.604 Y122.42 E60.50027
G1 X59.491 Y121.597 E60.58999
G1 X59.445 Y117.897 E60.98962
G1 X60.139 Y116.314 E61.17629
G1 X59.86 Y115.528 E61.26637
G1 X59.866 Y107.885 E62.09181
G1 X59.975 Y107.358 E62.14993
G1 X59.457 Y106.185 E62.28842
G1 X59.064 Y104.296 E62.4968
G1 X59.068 Y100.789 E62.87556
G1 X59.887 Y98.303 E63.15824
G1 X59.996 Y98.072 E63.18583
G1 X59.768 Y94.969 E63.52185
G1 X60.942 Y92.179 E63.84876
G1 X62.311 Y90.274 E64.10212
G0 F7200 X62.592 Y90.568
G1 F1800 X65.371 Y88.757 E64.46036
G1 X68.874 Y88.255 E64.84255
G1 X74.722 Y88.198 E65.47416
G1 X77.113 Y88.969 E65.74548
G1 X78.235 Y90.037 E65.91278
G1 X80.542 Y89.29 E66.17467
G1 X85.174 Y89.291 E66.67492
G1 X86.824 Y89.851 E66.86311
G1 X87.557 Y89.039 E66.98125
G1 X89.161 Y88.028 E67.18602
G1 X92.245 Y87.683 E67.52117
G1 X93.618 Y87.964 E67.67253
G1 X94.673 Y88.005 E67.78655
G1 X114.939 Y88.011 E69.97528
G1 X115.773 Y88.207 E70.06781
G1 X127.385 Y88.173 E71.32191
G1 X128.702 Y88.101 E71.46436
G1 X130.932 Y88.59 E71.71092
G1 X132.774 Y90.004 E71.96171
G1 X134.979 Y89.29 E72.21203
G1 X139.656 Y89.29 E72.71714
G1 X141.715 Y89.99 E72.95201
G1 X143.247 Y88.768 E73.16366
G1 X145.584 Y88.21 E73.42315
G1 X156.676 Y88.21 E74.62108
G1 X159.17 Y89.058 E74.90558
G1 X161.535 Y91.493 E75.27218
G1 X162.44 Y94.265 E75.58711
G1 X162.44 Y128.681 E79.30404
G1 X162.066 Y130.399 E79.49393
G1 X161.084 Y132.009 E79.6976
G1 X159.14 Y133.895 E79.99012
G1 X156.379 Y134.79 E80.30359
G1 X145.168 Y134.79 E81.51437
G1 X142.777 Y134.015 E81.78583
G1 X141.668 Y132.963 E81.95092
G1 X139.36 Y133.71 E82.21291
G1 X135.028 Y133.71 E82.68077
G1 X133.304 Y133.336 E82.87129
G1 X132.732 Y132.985 E82.94377
G1 X131.062 Y134.318 E83.17454
G1 X128.574 Y134.876 E83.44992
G1 X126.421 Y134.801 E83.68258
G1 X115.864 Y134.79 E84.82274
G1 X115.059 Y134.99 E84.91232
G1 X93.626 Y135.015 E87.22709
G1 X91.978 Y135.416 E87.41027
G1 X90.279 Y135.356 E87.59387
G1 X87.604 Y133.977 E87.9189
G1 X86.754 Y133.097 E88.05104
G1 X84.876 Y133.71 E88.26439
G1 X80.589 Y133.71 E88.72739
G1 X78.867 Y133.336 E88.9177
G1 X78.25 Y132.96 E88.99573
G1 X76.633 Y134.237 E89.21826
G1 X74.342 Y134.794 E89.4729
G1 X72.623 Y134.799 E89.65855
G1 X71.515 Y135.393 E89.79433
G1 X68.706 Y136.026 E90.10531
G1 X65.662 Y135.748 E90.43543
G1 X63.837 Y135.051 E90.64641
G1 X61.789 Y133.733 E90.90944
G1 X60.156 Y131.604 E91.19922
G1 X59.055 Y128.911 E91.51343
G1 X58.784 Y126.04 E91.82488
G1 X59.386 Y123.786 E92.07684
G1 X60.017 Y122.485 E92.23301
G1 X59.891 Y121.592 E92.33041
G1 X59.846 Y117.978 E92.72075
G1 X60.569 Y116.329 E92.91521
G1 X60.26 Y115.459 E93.01492
G1 X60.266 Y107.885 E93.83291
G1 X60.394 Y107.316 E93.8959
G1 X59.84 Y106.062 E94.04396
G1 X59.464 Y104.254 E94.2434
G1 X59.468 Y100.854 E94.6106
G1 X60.249 Y98.474 E94.88112
G1 X60.425 Y98.101 E94.92567
G1 X60.373 Y97.755 E94.96345
G1 X60.174 Y95.036 E95.25789
G1 X61.294 Y92.374 E95.5698
G1 X62.592 Y90.568 E95.81
G0 F7200 X62.873 Y90.862
G1 F1800 X65.514 Y89.141 E96.15044
G1 X68.878 Y88.655 E96.51752
G1 X74.66 Y88.599 E97.14201
G1 X76.903 Y89.322 E97.39653
G1 X78.132 Y90.491 E97.57971
G1 X80.606 Y89.69 E97.86056
G1 X85.107 Y89.691 E98.34667
G1 X86.944 Y90.315 E98.5562
G1 X87.818 Y89.347 E98.69705
G1 X89.295 Y88.416 E98.88561
G1 X92.228 Y88.088 E99.20435
G1 X93.571 Y88.363 E99.3524
G1 X94.658 Y88.405 E99.46989
G1 X114.894 Y88.411 E101.65538
G1 X115.728 Y88.607 E101.7479
G1 X127.389 Y88.573 E103.0073
G1 X128.667 Y88.503 E103.14553
G1 X130.76 Y88.962 E103.37694
G1 X132.697 Y90.45 E103.64074
G1 X135.043 Y89.69 E103.90707
G1 X139.589 Y89.69 E104.39804
G1 X141.794 Y90.44 E104.64958
G1 X143.428 Y89.136 E104.87536
G1 X145.631 Y88.61 E105.11997
G1 X156.609 Y88.61 E106.30559
G1 X158.95 Y89.406 E106.57264
G1 X161.184 Y91.706 E106.91892
G1 X162.04 Y94.328 E107.21681
G1 X162.04 Y128.637 E110.92218
G1 X161.689 Y130.25 E111.10046
G1 X160.771 Y131.755 E111.29085
G1 X158.928 Y133.543 E111.56817
G1 X156.315 Y134.39 E111.86483
G1 X145.229 Y134.39 E113.06212
G1 X142.987 Y133.663 E113.31667
G1 X141.77 Y132.509 E113.4978
G1 X139.296 Y133.31 E113.77865
G1 X135.072 Y133.31 E114.23484
G1 X133.455 Y132.959 E114.41354
G1 X132.701 Y132.497 E114.50905
G1 X130.883 Y133.948 E114.76026
G1 X128.538 Y134.474 E115.01981
G1 X126.435 Y134.401 E115.24707
G1 X115.816 Y134.39 E116.39393
G1 X115.011 Y134.59 E116.48351
G1 X93.576 Y134.615 E118.79849
G1 X91.936 Y135.014 E118.98078
G1 X90.383 Y134.959 E119.14861
G1 X87.846 Y133.651 E119.45687
G1 X86.868 Y132.639 E119.60887
G1 X84.813 Y133.31 E119.84234
G1 X80.633 Y133.31 E120.29378
G1 X79.018 Y132.959 E120.47227
G1 X78.221 Y132.473 E120.57309
G1 X76.454 Y133.869 E120.81629
G1 X74.293 Y134.394 E121.05647
G1 X72.521 Y134.399 E121.24785
G1 X71.372 Y135.015 E121.38865
G1 X68.679 Y135.622 E121.68679
G1 X65.756 Y135.355 E122.00379
G1 X64.014 Y134.69 E122.20517
G1 X62.064 Y133.435 E122.45561
G1 X60.506 Y131.404 E122.73207
G1 X59.448 Y128.815 E123.03412
G1 X59.189 Y126.073 E123.33158
G1 X59.761 Y123.93 E123.57112
G1 X60.431 Y122.549 E123.7369
G1 X60.291 Y121.587 E123.84189
G1 X60.247 Y118.059 E124.22294
G1 X60.946 Y116.466 E124.41082
G1 X60.954 Y116.219 E124.43751
G1 X60.66 Y115.39 E124.53251
G1 X60.666 Y107.885 E125.34305
G1 X60.815 Y107.278 E125.41055
G1 X60.223 Y105.939 E125.56866
G1 X59.864 Y104.212 E125.75917
G1 X59.868 Y100.917 E126.11503
G1 X60.611 Y98.645 E126.37319
G1 X60.839 Y98.162 E126.43088
G1 X60.772 Y97.726 E126.47852
G1 X60.58 Y95.103 E126.76256
G1 X61.646 Y92.569 E127.05946
G1 X62.873 Y90.862 E127.2865
G0 F7200 X63.156 Y91.155
G1 F1800 X65.657 Y89.525 E127.60891
G1 X68.882 Y89.055 E127.96089
G1 X74.598 Y89 E128.57825
G1 X76.693 Y89.675 E128.81596
G1 X78.109 Y91.021 E129.02696
G1 X78.382 Y90.831 E129.06288
G1 X80.67 Y90.09 E129.32262
G1 X85.04 Y90.091 E129.79458
G1 X87.064 Y90.779 E130.02545
G1 X88.079 Y89.655 E130.18902
G1 X89.429 Y88.804 E130.36137
G1 X92.211 Y88.493 E130.66369
G1 X93.524 Y88.762 E130.80844
G1 X94.643 Y88.805 E130.92938
G1 X114.849 Y88.811 E133.11163
G1 X115.683 Y89.007 E133.20416
G1 X127.393 Y88.973 E134.46884
G1 X128.632 Y88.905 E134.60286
G1 X130.587 Y89.334 E134.81902
G1 X132.43 Y90.745 E135.0697
G1 X132.609 Y90.97 E135.10075
G1 X132.82 Y90.831 E135.12804
G1 X135.107 Y90.09 E135.38768
G1 X139.522 Y90.09 E135.8645
G1 X141.528 Y90.772 E136.09332
G1 X141.786 Y90.959 E136.12774
G1 X143.609 Y89.504 E136.37964
G1 X145.678 Y89.01 E136.60938
G1 X156.542 Y89.01 E137.78269
G1 X158.73 Y89.754 E138.03228
G1 X160.833 Y91.919 E138.35825
G1 X161.64 Y94.391 E138.63909
G1 X161.64 Y128.593 E142.33291
G1 X161.312 Y130.101 E142.49958
G1 X160.458 Y131.501 E142.67669
G1 X158.716 Y133.191 E142.93882
G1 X156.251 Y133.99 E143.21867
G1 X145.293 Y133.99 E144.40214
G1 X143.195 Y133.31 E144.64032
G1 X141.792 Y131.979 E144.84919
G1 X141.519 Y132.169 E144.88511
G1 X139.232 Y132.91 E145.14474
G1 X135.116 Y132.91 E145.58927
G1 X133.606 Y132.582 E145.75616
G1 X132.67 Y132.009 E145.87468
G1 X130.703 Y133.579 E146.14649
G1 X128.503 Y134.072 E146.38998
G1 X126.449 Y134.001 E146.61195
G1 X115.768 Y133.99 E147.7655
G1 X114.963 Y134.19 E147.85508
G1 X93.526 Y134.215 E150.17028
G1 X91.894 Y134.612 E150.35167
G1 X90.487 Y134.562 E150.50372
G1 X88.086 Y133.324 E150.79547
G1 X86.981 Y132.182 E150.96709
G1 X84.75 Y132.91 E151.22055
G1 X80.677 Y132.91 E151.66043
G1 X79.169 Y132.582 E151.8271
G1 X78.191 Y131.986 E151.95079
G1 X76.275 Y133.501 E152.21459
G1 X74.244 Y133.994 E152.44031
G1 X72.419 Y133.999 E152.63741
G1 X71.229 Y134.637 E152.78324
G1 X68.652 Y135.218 E153.06854
G1 X65.85 Y134.962 E153.37242
G1 X64.191 Y134.329 E153.56419
G1 X62.339 Y133.137 E153.80205
G1 X60.856 Y131.204 E154.06518
G1 X59.84 Y128.719 E154.35512
G1 X59.594 Y126.106 E154.63857
G1 X60.136 Y124.074 E154.8657
G1 X60.845 Y122.612 E155.04119
G1 X60.691 Y121.582 E155.15366
G1 X60.648 Y118.14 E155.52543
G1 X61.343 Y116.556 E155.71224
G1 X61.357 Y116.157 E155.75536
G1 X61.06 Y115.321 E155.85118
G1 X61.066 Y107.935 E156.64886
G1 X61.23 Y107.264 E156.72347
G1 X61.034 Y106.784 E156.77946
G1 X60.606 Y105.816 E156.89377
G1 X60.264 Y104.17 E157.07533
G1 X60.268 Y100.98 E157.41985
G1 X60.973 Y98.816 E157.66566
G1 X61.253 Y98.223 E157.73648
G1 X61.171 Y97.697 E157.79397
G1 X60.986 Y95.17 E158.06762
G1 X61.997 Y92.767 E158.34918
G1 X63.156 Y91.155 E158.5636
G0 F7200 X63.439 Y91.448
G1 F1800 X65.801 Y89.909 E158.86807
G1 X67.463 Y89.672 E159.04938
G1 X68.886 Y89.455 E159.20484
G1 X74.536 Y89.401 E159.81507
G1 X76.483 Y90.028 E160.03598
G1 X78.091 Y91.556 E160.27555
G1 X78.505 Y91.212 E160.33368
G1 X80.734 Y90.49 E160.58672
G1 X84.973 Y90.491 E161.04454
G1 X86.826 Y91.121 E161.25591
G1 X87.106 Y91.329 E161.29358
G1 X88.34 Y89.963 E161.49239
G1 X89.563 Y89.192 E161.64853
G1 X92.194 Y88.898 E161.93445
G1 X93.477 Y89.161 E162.07589
G1 X94.628 Y89.205 E162.20029
G1 X114.804 Y89.211 E164.3793
G1 X115.638 Y89.407 E164.47183
G1 X127.397 Y89.373 E165.7418
G1 X128.597 Y89.307 E165.8716
G1 X130.415 Y89.706 E166.07262
G1 X132.187 Y91.063 E166.31366
G1 X132.529 Y91.557 E166.37855
G1 X132.943 Y91.212 E166.43676
G1 X135.171 Y90.49 E166.6897
G1 X139.455 Y90.49 E167.15237
G1 X141.399 Y91.151 E167.37413
G1 X141.836 Y91.539 E167.43724
G1 X142.039 Y91.268 E167.47381
G1 X143.789 Y89.872 E167.71558
G1 X145.725 Y89.41 E167.93054
G1 X156.475 Y89.41 E169.09154
G1 X158.51 Y90.102 E169.32368
G1 X160.482 Y92.132 E169.62933
G1 X161.24 Y94.454 E169.89313
G1 X161.24 Y128.549 E173.57539
G1 X160.935 Y129.952 E173.73046
G1 X160.145 Y131.247 E173.89429
G1 X158.504 Y132.839 E174.14121
G1 X156.187 Y133.59 E174.40426
G1 X145.354 Y133.59 E175.57423
G1 X143.405 Y132.958 E175.79551
G1 X141.809 Y131.444 E176.03309
G1 X141.396 Y131.788 E176.09114
G1 X139.168 Y132.51 E176.34409
G1 X135.16 Y132.51 E176.77695
G1 X133.757 Y132.205 E176.93201
G1 X132.546 Y131.464 E177.08534
G1 X132.311 Y131.784 E177.12822
G1 X130.525 Y133.209 E177.37498
G1 X128.468 Y133.67 E177.60265
G1 X126.463 Y133.601 E177.81932
G1 X115.72 Y133.59 E178.97956
G1 X114.915 Y133.79 E179.06915
G1 X93.476 Y133.815 E181.38456
G1 X91.852 Y134.21 E181.56507
G1 X90.591 Y134.165 E181.70134
G1 X88.326 Y132.997 E181.97657
G1 X87.043 Y131.671 E182.17584
G1 X86.822 Y131.818 E182.20451
G1 X84.685 Y132.51 E182.4471
G1 X80.721 Y132.51 E182.87521
G1 X79.318 Y132.205 E183.03028
G1 X78.076 Y131.447 E183.18742
G1 X77.858 Y131.739 E183.22677
G1 X76.096 Y133.133 E183.46942
G1 X74.195 Y133.594 E183.68068
G1 X72.317 Y133.599 E183.88351
G1 X71.086 Y134.259 E184.03436
G1 X68.625 Y134.814 E184.30682
G1 X65.944 Y134.569 E184.59757
G1 X64.368 Y133.968 E184.77974
G1 X62.614 Y132.839 E185.00502
G1 X61.206 Y131.004 E185.25482
G1 X60.232 Y128.623 E185.53265
G1 X59.999 Y126.139 E185.8021
G1 X60.512 Y124.216 E186.01705
G1 X61.259 Y122.675 E186.202
G1 X61.091 Y121.577 E186.32196
G1 X61.049 Y118.221 E186.68444
G1 X61.741 Y116.645 E186.87033
G1 X61.759 Y116.095 E186.92976
G1 X61.46 Y115.252 E187.02636
G1 X61.466 Y107.985 E187.8112
G1 X61.65 Y107.233 E187.89481
G1 X61.404 Y106.632 E187.96495
G1 X60.989 Y105.693 E188.07582
G1 X60.664 Y104.128 E188.24845
G1 X60.668 Y101.042 E188.58174
G1 X61.335 Y98.987 E188.81507
G1 X61.667 Y98.283 E188.89914
G1 X61.57 Y97.668 E188.96638
G1 X61.392 Y95.237 E189.22963
G1 X62.348 Y92.965 E189.49584
G1 X63.439 Y91.448 E189.69765
G0 F7200 X63.72 Y91.742
G1 F1800 X65.944 Y90.293 E189.98432
